symbolic/status/media-playlist-repeat-rtl-symbolic.svg

<svg xmlns="http://www.w3.org/2000/svg" width="16" height="16"><path d="M10 1v2h2c1.662 0 3 1.338 3 3v4c0 1.662-1.338 3-3 3H4c-1.662 0-3-1.338-3-3V6c0-1.662 1.338-3 3-3h1v2H4c-.554 0-1 .446-1 1v4c0 .554.446 1 1 1h8c.554 0 1-.446 1-1V6c0-.554-.446-1-1-1h-2v2L6 4z" fill="#f8f8f2"/></svg>

<svg xmlns="http://www.w3.org/2000/svg" width="16" height="16" version="1.1">
 <path style="fill:#dfdfdf" d="M 10,1 V 3 H 12 C 13.662,3 15,4.338 15,6 V 10 C 15,11.662 13.662,13 12,13 H 4 C 2.338,13 1,11.662 1,10 V 6 C 1,4.338 2.338,3 4,3 H 5 V 5 H 4 C 3.446,5 3,5.446 3,6 V 10 C 3,10.554 3.446,11 4,11 H 12 C 12.554,11 13,10.554 13,10 V 6 C 13,5.446 12.554,5 12,5 H 10 V 7 L 6,4 Z"/>
</svg>
